X:1
T:I’ll Not Give Up the Bible
T:William Thomas Giffe, 1897
T:I’ll Not Give Up the Bible
T:Public Domain
T:Public Domain
C:William Thomas Giffe, 1897
Z:Public Domain
%%score ( 1 2 ) ( 3 4 )
L:1/8
M:4/4
K:Ab
V:1 treble 
V:2 treble 
V:3 bass 
V:4 bass 
V:1
 [CE]2 | [CA]2 [DB]2 [Ec]2 [CA]2 | [DG]2 [DF]4 [EA]2 | [EB]2 [Ec]2 [EB]2 [=DF]2 | (G4 A2) [EB]2 | %5
w: 1.~I’ll|not give up the|Bi- ble, That|pre- cious book di-|vine, * For|
w: 2.~Though|foes may fight a-|gainst me, And|en- e- mies com-|bine, * Its|
w: 3.~When|fate’s wild storms o’er-|cloud me, And|loud the bil- lows|roar, * My|
 [Ec]2 [Ae]2 (cB) [EA]2 | [DF]2 [FA]4 [DF]2 | [CE]2 [EA]2 [EB]2 [EG]2 | [CA]6 ||"^Refrain" [CE]2 | %10
w: y gilds its * pag-|And truth a-|dorns each line. I’ll|not|give|
w: cepts still shall * guide|As light from|Heav’n they shine. *|||
w: shall be the * Bi-|To guide to|Heav’n’s bright shore. *|||
 (EE E2 E2) [CA]2 | (C2 C2 C2) [CE]2 | (CC) [Ec]2 [Ae]2 [Ac]2 | [Ac]2 [GB]4 [GB]2 | %14
w: up, * * * I’ll|give * * up|Bi- * ble; I’ll not|up That pre-|
w: ||||
w: ||||
 (GG G2 G2) [GB]2 | (A2 A2 A2) [Fd]2 | ([Ec][DB]) [CA]2 [DB]2 [DG]2 | [CA]6 |] %18
w: cious * * * book|vine. * * *|||
w: ||||
w: ||||
V:2
 x2 | x8 | x8 | x8 | E6 x2 | x4 A2 x2 | x8 | x8 | x6 || x2 | c6 x2 | E6 x2 | A2 x6 | x8 | d6 x2 | %15
w: ||||glor-|es,|||||not|the|give||di-|
w: ||||pre-|me,||||||||||
w: ||||chart|ble,||||||||||
 e6 x2 | x8 | x6 |] %18
w: |||
w: |||
w: |||
V:3
 [A,,A,]2 | [A,,A,]2 [A,,A,]2 [A,,A,]2 [A,,A,]2 | [D,A,]2 [D,A,]4 [C,A,]2 | %3
w: ~|~ ~ ~ ~|~ ~ ~|
 [B,,G,]2 [A,,A,]2 [B,,G,]2 [B,,B,]2 | (E,2 D,2 [C,A,]2) [B,,G,]2 | [A,,A,]2 [A,,C]2 (ED) [A,,C]2 | %6
w: ~ ~ ~ ~|~ * * ~|~ ~ ~ * ~|
 [D,A,]2 [D,A,]4 [D,A,]2 | [E,A,]2 [E,C]2 [E,D]2 [E,B,]2 | [A,,A,]6 || [A,,A,]2 | %10
w: ~ ~ ~|~ ~ ~ I’ll|ne-|ver|
 [A,,A,][A,,A,] [A,,A,]2 [A,,A,]2 [A,,E,]2 | [A,,A,]2 [A,,A,]2 [A,,A,]2 [A,,A,]2 | %12
w: give u that ho- ly|book, I’ll ne- ver|
 [A,,A,][A,,A,] [A,,A,]2 [A,,C]2 [A,,E]2 | [E,E]2 [E,E]4 [E,D]2 | %14
w: give up the Bi- ble;|I’ll ne- ver|
 [E,B,][E,B,] [E,B,]2 [E,B,]2 [D,E]2 | [C,A,]2 [C,A,]2 [C,A,]2 [D,A,]2 | %16
w: give up that ho- ly|book That pre- cious|
 [E,A,]2 [E,A,]2 [E,G,]2 [E,B,]2 | [A,,A,]6 |] %18
w: book di- vine. *||
V:4
 x2 | x8 | x8 | x8 | B,4 x4 | x4 A,,2 x2 | x8 | x8 | x6 || x2 | x8 | x8 | x8 | x8 | x8 | x8 | x8 | %17
w: ||||~|~||||||||||||
 x6 |] %18
w: |

